library/css/icons/svgs/fi-trophy.svg

<svg xmlns="http://www.w3.org/2000/svg" width="100" height="100" viewBox="0 0 100 100"><path d="M82.296 23.931c0-1.059-.859-1.918-1.918-1.918h-8.074v-6.998l.018-.179c0-1.62-1.314-2.935-2.934-2.935l-.106.011v-.011h-38.917v.054c-1.507.123-2.696 1.372-2.696 2.911l.018.179v6.967h-8.067c-1.031 0-1.867.818-1.909 1.839h-.007v.073l-.001.007.001.007v26.038l-.001.004.001.009v.011h.001c.01 1.051.863 1.9 1.916 1.9h8.328c1.354 9.109 8.197 16.422 17.069 18.449v12.746h-9.969c-1.378 0-2.492 1.118-2.492 2.494s1.114 2.493 2.492 2.494v.017h29.894v-.017c1.377 0 2.492-1.118 2.492-2.494 0-1.376-1.115-2.494-2.492-2.494h-9.969v-12.742c8.881-2.02 15.733-9.337 17.087-18.453h8.318c1.028 0 1.86-.81 1.909-1.825h.011v-26.144h-.003zm-54.609 22.982h-4.997v-19.913h4.997v19.913zm49.623 0h-5.007v-19.913h5.007v19.913z"/></svg>

<?xml version="1.0" encoding="utf-8"?>
<!-- Generator: Adobe Illustrator 17.0.0, SVG Export Plug-In . SVG Version: 6.00 Build 0)  -->
<!DOCTYPE svg PUBLIC "-//W3C//DTD SVG 1.1//EN" "http://www.w3.org/Graphics/SVG/1.1/DTD/svg11.dtd">
<svg version="1.1" id="Layer_1" xmlns="http://www.w3.org/2000/svg" xmlns:xlink="http://www.w3.org/1999/xlink" x="0px" y="0px"
	 width="100px" height="100px" viewBox="0 0 100 100" enable-background="new 0 0 100 100" xml:space="preserve">
<g>
	<path d="M82.296,23.931c0-1.059-0.859-1.918-1.918-1.918h0h-8.074v-6.998c0.004-0.061,0.018-0.118,0.018-0.179
		c0-1.62-1.314-2.935-2.934-2.935c-0.036,0-0.07,0.009-0.106,0.011v-0.011H30.365v0.054c-1.507,0.123-2.696,1.372-2.696,2.911
		c0,0.062,0.014,0.119,0.018,0.179v6.967H19.62c-1.031,0-1.867,0.818-1.909,1.839h-0.007v0.073l-0.001,0.007
		c0,0,0.001,0.004,0.001,0.007v26.038c0,0.002-0.001,0.004-0.001,0.004s0.001,0.007,0.001,0.009V50h0.001
		c0.01,1.051,0.863,1.9,1.916,1.9h0.001h8.327c1.354,9.109,8.197,16.422,17.069,18.449v12.746h-9.969
		c-1.378,0-2.492,1.118-2.492,2.494s1.114,2.493,2.492,2.494v0.017h29.894v-0.017h0c1.377,0,2.492-1.118,2.492-2.494
		c0-1.376-1.115-2.494-2.492-2.494h0h-9.969V70.353c8.881-2.02,15.733-9.337,17.087-18.453h8.317h0.001
		c1.028,0,1.86-0.81,1.909-1.825h0.011V23.931H82.296z M27.687,46.913H22.69V27h4.997V46.913z M77.31,46.913h-5.007V27h5.007V46.913
		z"/>
</g>
</svg>
